X:38
T:Mandolin Concerto in C Major, 1st mvmt-Allegro
C:Sequenced by V. Phillips
N:TablEdited by Michael P Herlihy
L:1/8
Q:1/4=200
M:4/4
K:C
z8 | G/g/g/g/ G/g/g/g/ G/g/g/g/ G/g/g/g/ | G/g/g/g/ G/g/g/g3/2d3 | G/g/g/g/ G/g/g/g/ G/g/g/g/ G/g/g/g/ | 
G/g/g/g/ G/g/g/g3/2d3 | c/g/g/g/ c/g/g/g/ c/f/f/f/ c/f/f/f/ | d/a/a/a/ d/a/a/a/ d/g/g/g/ d/g/g/g/ | 
e/b/b/b/ e/b/b/b/ e/a/a/a/ e/a/a/a/ | f/c'/c'/c'/ f/c'/c'/c'4z/ | z/e/f/d/ e/c/d/B/ g/e/f/d/ e/c/d/B/ | 
zc' db c'3c | z/e/f/d/ e/c/d/B/ g/e/f/d/ e/c/d/B/ | a/f/g/e/ f/d/e/c/ b/g/a/f/ g/e/f/d/ | 
ec3 e/g/g/g/ e/c/c/c/ | A/F/F/F/ A/c/c/c/ f/a/a/a/ f/d/d/d/ | B/G/G/G/ B/d/d/d/ g/b/b/b/ g/e/e/e/ | 
c/A/A/A/ c/e/e/e/ a/c'/c'/c'/ a/f/f/f/ | d3d E/e/e/e/ E/e/e/e/ | F/f/f/f/ F/f/f/f/ G/g/g/g/ G/g/g/g/ | 
A/a/a/a/ A/a/a/a/ B/b/b/b/ B/b/b/b/ | a/d/d/d/ a/d/d/d/ a/c/c/c/ a/c/c/c/ | B/g/g/g/ B/g/g/g/ A/g/g/g/ A/g/g/g/ | 
A/^f/f/f/ A/f/f/f/ g/b/b/b/ B/b/b/b/ | A/a/a/a/ A/a/a/a/ B/b/b/b/ B/b/b/b/ | a^f3 c/c'/c'/c'/ c/c'/c'/c'/ | 
B/b/b/b/ B/b/b/b/ c/c'/c'/c'/ c/c'/c'/c'/ | b^g2g a/e/f/d/ e/c/d/B/ | a/e/f/d/ e/c/d/B/ c3^g | 
z/A/4B/4c/A/ e/A/4B/4c/A/ a/A/4B/4c/A/ e/A/4B/4c/A/ | a/A/4B/4c/A/ a/g/g/f/ f/A/4B/4c/A/ d/c/c/B/ | 
B/d/4e/4f/d/ g/f/f/e/ e/G/4A/4_B/G/ c/B/B/A/ | A/c/4d/4e/c/ f/e/e/^d/ d/B/B/B/ d/B/4^c/4d/B/ | 
e/B/B/B/ ^f/B/B/B/ g/e/4f/4g/e/ a/f/4g/4a/f/ | b2 z/b/b/b/ g/b/b/b/ e/b/b/b/ | 
^d/^f/f/f/ B/a/a/a/ g/b/b/b/ e/g/g/g/ | ^f/^d/d/d/ g/e/e/e/ a/f/f/f/ g/e/e/e/ | 
^d/B/^c/d/ e/^f/g/a/ b/g/f/e/ f/8g/8f/8g/8fe/ | e/g/g/g/ G/g/g/g/ ^F/^f/f/f/ F/f/f/f/ | 
G/g/g/g/ G/g/g/g3/2g3 | e4 cc/d/ ee/f/ | gG2d GB/c/ de/f/ | ec2g ce/f/ ga/_b/ | 
af2a d^f/g/ ab/c'/ | bg2g G/f/f/f/ G/e/e/e/ | G/d/d/d/ G/c/c/c/ G/f/f/f/ G/e/e/e/ | 
G/d/d/d/ G/c/c/c/ B/G/A/B/ c/d/e/f/ | gf f/8g/8f3/4e/d/ e/c/d/e/ f/g/a/b/ | c'_b b/8c'/8b3/4a/g/ a/f/g/e/ f/d/e/c/ | 
d/B/c/A/ B/G/A/F/ G/E/F/D/ E/C/G/E/ | c/e/e/e/ g/_B/B/B/ A/f/f/f/ a/c/c/c/ | B/g/g/g/ b/d/d/d/ c/a/a/a/ c'/e/e/e/ | 
d/B/e/c/ f/d/g/e/ d/B/e/c/ f/d/g/e/ | d/g/g/g/ G/g/g/g/ e/c/4B/4c/c/ E/c/4B/4c/c/ | 
F/c/4B/4c/c/ G/c/4B/4c/c/ A/c/4B/4c/c/ e/c/4B/4c/c/ | f/c/4B/4c/c/ g/c/4B/4c/c/ a/B/c/d/ d/8e/8d/8e/8dc/ | 
c/g/g/g/ G/g/g/g/ G/g/g/g/ G/g/g/g/ | G/g/g/g/ G/g/g/g3/2d3 | G/g/g/g/ G/g/g/g/ G/g/g/g/ G/g/g/g/ | 
G/g/g/g/ G/g/g/g3/2d3 | c/g/g/g/ c/g/g/g/ c/f/f/f/ c/f/f/f/ | d/a/a/a/ d/a/a/a/ d/g/g/g/ d/g/g/g/ | 
e/b/b/b/ e/b/b/b/ e/a/a/a/ e/a/a/a/ | f/c'/c'/c'/ f/c'/c'/c'4z/ | z/e/f/d/ e/c/d/B/ g/e/f/d/ e/c/d/B/ | 
z2 d6 | 
 

